logos/tv.canal+.svg

<?xml version="1.0" encoding="UTF-8" standalone="no"?>
<!-- Created with Inkscape (http://www.inkscape.org/) -->

<svg
   xmlns:dc="http://purl.org/dc/elements/1.1/"
   xmlns:cc="http://creativecommons.org/ns#"
   xmlns:rdf="http://www.w3.org/1999/02/22-rdf-syntax-ns#"
   xmlns:svg="http://www.w3.org/2000/svg"
   xmlns="http://www.w3.org/2000/svg"
   xmlns:inkscape="http://www.inkscape.org/namespaces/inkscape"
   version="1.0"
   width="500"
   height="125"
   id="svg2">
  <metadata
     id="metadata12">
    <rdf:RDF>
      <cc:Work
         rdf:about="">
        <dc:format>image/svg+xml</dc:format>
        <dc:type
           rdf:resource="http://purl.org/dc/dcmitype/StillImage" />
      </cc:Work>
    </rdf:RDF>
  </metadata>
  <defs
     id="defs10" />
  <g
     transform="translate(-332.74477,-410.91065)"
     id="layer1">
    <path
       d="m 832.74478,410.91065 0,124.99999 -500.00001,0 0,-124.99999 500.00001,0 z"
       inkscape:connector-curvature="0"
       id="path68518"
       style="fill:#000000;fill-rule:nonzero;stroke:none" />
    <path
       d="m 813.22574,479.75075 c 0,0 -0.0967,0.2092 -0.43518,0.2092 l -26.96561,0 c -0.43519,0 -0.64472,0.20919 -0.64472,0.20919 0,0 -0.32237,0.11264 -0.32237,0.64366 l 0,28.7397 c 0,0.43448 -0.20953,0.53103 -0.20953,0.53103 0,0 -0.11283,0.22528 -0.43519,0.22528 l -21.43709,0 c -0.30625,0 -0.5319,-0.22528 -0.5319,-0.22528 0,0 -0.11283,-0.0965 -0.11283,-0.62758 l 0,-28.75579 c 0,-0.30574 -0.25789,-0.53102 -0.25789,-0.53102 0,0 -0.16118,-0.20919 -0.43519,-0.20919 l -27.6748,0 c -0.5319,0 -0.6286,-0.11265 -0.6286,-0.11265 0,0 -0.20954,-0.20919 -0.20954,-0.85285 l 0,-21.0318 c 0,-0.25747 0.20954,-0.53102 0.20954,-0.53102 0,0 0.0967,-0.0965 0.32236,-0.0965 l 28.25505,0 c 0.22566,0 0.22566,-0.11265 0.22566,-0.11265 0,0 0.19341,-0.11264 0.19341,-0.32183 l 0,-25.18344 c 0,-0.30574 0.11283,-0.53103 0.11283,-0.53103 0,0 0.22565,-0.11264 0.85426,-0.11264 l 21.01802,0 c 0.41907,0 0.5319,0.11264 0.5319,0.11264 0,0 0.20953,0.22529 0.20953,0.64367 l 0,25.27999 27.46527,0 c 0.69308,0 0.90261,0.11264 0.90261,0.11264 0,0 0.32237,0.11265 0.32237,0.74022 l 0,21.25708 c 0,0.20919 -0.32237,0.53102 -0.32237,0.53102 z m -83.66913,29.60865 c -0.0967,0.62758 -0.20953,0.83677 -0.20953,0.83677 0,0 -0.11283,0.22528 -0.64473,0.22528 l -43.47055,0 c -1.25721,0 -1.59569,-0.33792 -1.59569,-0.33792 0,0 -0.20954,-0.41839 -0.11283,-1.36779 l 10.78302,-74.81012 c 0.11283,-0.90113 0.32236,-1.22296 0.32236,-1.22296 0,0 0.11283,0 1.11215,0 l 19.79305,0 c 0.53189,0 0.69307,0.0965 0.69307,0.0965 0,0 0.11283,0.33792 0,0.75631 l -8.10741,58.46098 c -0.11282,0.62758 0.20954,0.69195 0.20954,0.69195 0,0 0.20953,0.11264 1.07991,0.11264 l 21.48545,0 c 0.46742,0 0.6286,0.1931 0.6286,0.1931 0,0 0.11283,0.11264 0.11283,0.64366 l -2.07924,15.72155 z m -55.39795,1.1586 -19.3095,0 c -0.41908,0.20919 -0.75756,-0.20919 -0.75756,-0.20919 0,0 -0.0967,-0.11264 -0.20953,-0.75631 l -2.56278,-11.92392 c -0.20954,-0.57929 -0.41907,-0.90113 -0.41907,-0.90113 0,0 -0.5319,-0.32183 -1.17662,-0.32183 l -25.11203,0 c -0.48354,0 -0.8059,0.32183 -0.8059,0.32183 0,0 -0.41907,0.37011 -0.64473,1.01378 l -5.70581,12.1492 c -0.0967,0.30574 -0.30624,0.41838 -0.30624,0.41838 0,0 -0.43519,0.11264 -0.64473,0.11264 l -21.75945,0 c -0.5319,0.0965 -0.69308,-0.22528 -0.69308,-0.22528 0,0 -0.0967,-0.20919 0.16118,-0.64367 l 38.34499,-76.33882 c 0.20954,-0.0966 0.41908,-0.43447 0.41908,-0.43447 0,0 0.22565,-0.0965 0.85426,-0.0965 l 23.74198,0 c 0.53189,0 0.83814,0.32183 0.83814,0.32183 0,0 0.11283,0.11264 0.22565,0.41838 l 15.94082,76.66066 c 0,0.22528 -0.11283,0.33792 -0.11283,0.33792 0,0 0,0.0965 -0.30624,0.0965 z m -90.50321,-0.0965 -19.3095,0 c -0.32237,0 -0.62861,0 -0.62861,0 0,0 -0.0645,-0.11264 -0.1773,-0.22528 L 536.7195,462.70969 c -0.20954,-0.20919 -0.30625,-0.20919 -0.30625,-0.20919 0,0 -0.22565,0 -0.22565,0.30574 l -6.65678,46.64971 c -0.11283,0.53103 -0.22565,0.62758 -0.22565,0.62758 0,0 -0.20954,0.11264 -0.5319,0.11264 l -19.19668,0 c -0.30624,0 -0.53189,-0.20919 -0.53189,-0.20919 0,0 -0.41907,-0.43448 -0.25789,-0.85286 l 10.49289,-75.48596 c 0.11283,-0.43448 0.33848,-0.53103 0.33848,-0.53103 0,0 0.30624,-0.33792 0.62861,-0.33792 l 21.43709,0 c 0.32236,0 0.5319,0.22528 0.5319,0.22528 0,0 0.20953,0.11264 0.32236,0.41838 l 24.16105,42.33715 c 0.41907,0.83677 0.74143,0.74022 0.74143,0.74022 0,0 0.32237,0 0.5319,-0.9655 l 6.09265,-42.11187 c 0,-0.30574 0.19342,-0.41838 0.19342,-0.41838 0,0 0.11282,-0.22528 0.43519,-0.22528 l 20.14764,0.22528 c 0.43519,0 0.54801,0.11264 0.54801,0.11264 0,0 0.0967,0.0966 0.0967,0.30574 l -10.87972,76.12963 c -0.11283,0.43448 -0.30625,0.75631 -0.30625,0.75631 0,0 -0.11283,0.11264 -0.64472,0.11264 z m -84.42668,-0.22528 -18.76149,0.11264 c -0.43519,0 -0.74143,-0.22528 -0.74143,-0.22528 0,0 -0.11283,-0.0965 -0.22566,-0.83677 l -2.93349,-12.1492 c 0,-0.25747 -0.19342,-0.37011 -0.19342,-0.37011 0,0 -0.11283,0 -0.33848,0 l -26.49818,0 c -0.5319,0 -0.85426,0.37011 -0.85426,0.37011 0,0 -0.41907,0.32183 -0.74143,1.06205 l -5.28674,11.29634 c -0.20954,0.43448 -0.32237,0.53103 -0.32237,0.53103 0,0 -0.30624,0.20919 -0.58025,0.20919 l -21.85616,0 c -0.64473,0.11264 -0.75755,-0.20919 -0.75755,-0.20919 0,0 -0.11283,-0.32184 0.11282,-0.74022 l 37.90981,-76.03308 c 0.16118,-0.43447 0.48354,-0.53102 0.48354,-0.53102 0,0 0.20954,0 0.74143,0 l 24.16106,0 c 0.43519,0 0.74143,0.32183 0.74143,0.32183 0,0 0.11283,0.11264 0.22565,0.41838 l 16.24706,76.24227 c 0,0.32184 -0.19341,0.41839 -0.19341,0.41839 0,0 -0.11283,0.11264 -0.33848,0.11264 z m 143.14497,-55.51622 c 0,0 -0.11283,0 -0.22566,0.41839 l -10.54124,23.79956 c -0.22566,0.74021 -0.11283,0.85285 -0.11283,0.85285 0,0 0.30624,0.2092 0.5319,0.2092 l 15.61845,-0.11265 c 0.11283,0 0.20953,0 0.20953,0 0,0 0.11283,-0.0966 0,-0.41838 l -5.27062,-24.44323 c -0.0967,-0.30574 -0.20953,-0.30574 -0.20953,-0.30574 z m -175.18779,0.30574 c 0,0 -0.0967,0 -0.20953,0.22529 l -10.55737,23.89611 c -0.20953,0.32183 -0.11282,0.53102 -0.11282,0.53102 0,0 0.11282,0.11264 0.64472,0.11264 l 15.50563,0.0966 c 0.11282,0 0.16118,-0.0966 0.16118,-0.0966 0,0 0.11283,-0.11264 0,-0.43447 l -5.3351,-24.1053 c 0,-0.22529 -0.0967,-0.22529 -0.0967,-0.22529 z m -54.06015,52.55536 c -0.11283,0.83676 -0.5319,1.48043 -0.5319,1.48043 0,0 -0.4513,0.43447 -1.12827,0.64366 -10.18664,4.10338 -21.45321,2.71949 -21.45321,2.71949 -18.27794,-1.96318 -29.85074,-13.16297 -33.59014,-27.5811 -5.49628,-21.61109 5.39956,-36.94644 8.05905,-40.24523 6.39889,-7.67572 16.42436,-13.14688 26.28865,-14.43422 12.53989,-1.75399 21.82392,1.17469 25.66003,2.46203 0,0 4.20683,1.31951 7.34986,3.4597 1.5957,1.06205 1.82135,1.48044 1.82135,1.48044 0,0 0.0967,0.22528 -0.33848,1.86663 l -2.96573,15.48017 c -0.11283,0.64367 -0.49966,0.9655 -0.49966,0.9655 0,0 -0.20954,0.11264 -1.70852,-0.85286 -9.47746,-6.71022 -20.56672,-5.90563 -20.56672,-5.90563 -8.42977,0.53102 -18.29406,4.95623 -21.22755,16.12384 -2.61114,9.91246 0.11282,18.21575 6.01205,23.15589 4.01341,3.52407 10.25112,5.27806 16.8112,4.97232 7.14032,-0.53102 12.84613,-3.36315 12.42706,-3.15396 0,0 0.30625,-0.11264 0.64473,-0.20919 1.48286,-0.74022 1.80522,-0.64367 1.80522,-0.64367 0,0 0.32237,0.32183 0.0967,1.28733 l -2.96573,16.92843"
       inkscape:connector-curvature="0"
       id="path68520"
       style="fill:#ffffff;fill-rule:nonzero;stroke:none" />
    <path
       d="m 942.37991,142.45821 2.382,0 -2.382,0"
       inkscape:connector-curvature="0"
       id="path68644"
       style="fill:#000000;fill-rule:nonzero;stroke:none" />
    <path
       d="m 944.76191,141.56521 0,0.248 0,-0.248"
       inkscape:connector-curvature="0"
       id="path68650"
       style="fill:#de6a06;fill-rule:nonzero;stroke:none" />
  </g>
</svg>

<?xml version="1.0" encoding="UTF-8" standalone="no"?>
<!-- Created with Inkscape (http://www.inkscape.org/) -->
<svg
   xmlns:dc="http://purl.org/dc/elements/1.1/"
   xmlns:cc="http://web.resource.org/cc/"
   xmlns:rdf="http://www.w3.org/1999/02/22-rdf-syntax-ns#"
   xmlns:svg="http://www.w3.org/2000/svg"
   xmlns="http://www.w3.org/2000/svg"
   xmlns:xlink="http://www.w3.org/1999/xlink"
   xmlns:sodipodi="http://sodipodi.sourceforge.net/DTD/sodipodi-0.dtd"
   xmlns:inkscape="http://www.inkscape.org/namespaces/inkscape"
   width="500"
   height="125"
   id="svg2"
   sodipodi:version="0.32"
   inkscape:version="0.45.1"
   version="1.0"
   inkscape:output_extension="org.inkscape.output.svg.inkscape">
  <g
     inkscape:label="Layer 1"
     inkscape:groupmode="layer"
     id="layer1"
     transform="translate(-332.74477,-410.91065)">
    <path
       id="path68518"
       d="M 832.74478,410.91065 L 832.74478,535.91064 L 332.74477,535.91064 L 332.74477,410.91065 L 832.74478,410.91065 z "
       style="fill:#000000;fill-rule:nonzero;stroke:none" />
    <path
       style="fill:#ffffff;fill-rule:nonzero;stroke:none"
       d="M 813.22574,479.75075 C 813.22574,479.75075 813.12904,479.95995 812.79056,479.95995 L 785.82495,479.95995 C 785.38976,479.95995 785.18023,480.16914 785.18023,480.16914 C 785.18023,480.16914 784.85786,480.28178 784.85786,480.8128 L 784.85786,509.5525 C 784.85786,509.98698 784.64833,510.08353 784.64833,510.08353 C 784.64833,510.08353 784.5355,510.30881 784.21314,510.30881 L 762.77605,510.30881 C 762.4698,510.30881 762.24415,510.08353 762.24415,510.08353 C 762.24415,510.08353 762.13132,509.98698 762.13132,509.45595 L 762.13132,480.70016 C 762.13132,480.39442 761.87343,480.16914 761.87343,480.16914 C 761.87343,480.16914 761.71225,479.95995 761.43824,479.95995 L 733.76344,479.95995 C 733.23154,479.95995 733.13484,479.8473 733.13484,479.8473 C 733.13484,479.8473 732.9253,479.63811 732.9253,478.99445 L 732.9253,457.96265 C 732.9253,457.70518 733.13484,457.43163 733.13484,457.43163 C 733.13484,457.43163 733.23154,457.33508 733.4572,457.33508 L 761.71225,457.33508 C 761.93791,457.33508 761.93791,457.22243 761.93791,457.22243 C 761.93791,457.22243 762.13132,457.10979 762.13132,456.9006 L 762.13132,431.71716 C 762.13132,431.41142 762.24415,431.18613 762.24415,431.18613 C 762.24415,431.18613 762.4698,431.07349 763.09841,431.07349 L 784.11643,431.07349 C 784.5355,431.07349 784.64833,431.18613 784.64833,431.18613 C 784.64833,431.18613 784.85786,431.41142 784.85786,431.8298 L 784.85786,457.10979 L 812.32313,457.10979 C 813.01621,457.10979 813.22574,457.22243 813.22574,457.22243 C 813.22574,457.22243 813.54811,457.33508 813.54811,457.96265 L 813.54811,479.21973 C 813.54811,479.42892 813.22574,479.75075 813.22574,479.75075 z M 729.55661,509.3594 C 729.45991,509.98698 729.34708,510.19617 729.34708,510.19617 C 729.34708,510.19617 729.23425,510.42145 728.70235,510.42145 L 685.2318,510.42145 C 683.97459,510.42145 683.63611,510.08353 683.63611,510.08353 C 683.63611,510.08353 683.42657,509.66514 683.52328,508.71574 L 694.3063,433.90562 C 694.41913,433.00449 694.62866,432.68266 694.62866,432.68266 C 694.62866,432.68266 694.74149,432.68266 695.74081,432.68266 L 715.53386,432.68266 C 716.06575,432.68266 716.22693,432.77921 716.22693,432.77921 C 716.22693,432.77921 716.33976,433.11713 716.22693,433.53552 L 708.11952,491.9965 C 708.0067,492.62408 708.32906,492.68845 708.32906,492.68845 C 708.32906,492.68845 708.53859,492.80109 709.40897,492.80109 L 730.89442,492.80109 C 731.36184,492.80109 731.52302,492.99419 731.52302,492.99419 C 731.52302,492.99419 731.63585,493.10683 731.63585,493.63785 L 729.55661,509.3594 z M 674.15866,510.518 L 654.84916,510.518 C 654.43008,510.72719 654.0916,510.30881 654.0916,510.30881 C 654.0916,510.30881 653.9949,510.19617 653.88207,509.5525 L 651.31929,497.62858 C 651.10975,497.04929 650.90022,496.72745 650.90022,496.72745 C 650.90022,496.72745 650.36832,496.40562 649.7236,496.40562 L 624.61157,496.40562 C 624.12803,496.40562 623.80567,496.72745 623.80567,496.72745 C 623.80567,496.72745 623.3866,497.09756 623.16094,497.74123 L 617.45513,509.89043 C 617.35842,510.19617 617.14889,510.30881 617.14889,510.30881 C 617.14889,510.30881 616.7137,510.42145 616.50416,510.42145 L 594.74471,510.42145 C 594.21281,510.518 594.05163,510.19617 594.05163,510.19617 C 594.05163,510.19617 593.95492,509.98698 594.21281,509.5525 L 632.5578,433.21368 C 632.76734,433.11713 632.97688,432.77921 632.97688,432.77921 C 632.97688,432.77921 633.20253,432.68266 633.83114,432.68266 L 657.57312,432.68266 C 658.10501,432.68266 658.41126,433.00449 658.41126,433.00449 C 658.41126,433.00449 658.52409,433.11713 658.63691,433.42287 L 674.57773,510.08353 C 674.57773,510.30881 674.4649,510.42145 674.4649,510.42145 C 674.4649,510.42145 674.4649,510.518 674.15866,510.518 z M 583.65545,510.42145 L 564.34595,510.42145 C 564.02358,510.42145 563.71734,510.42145 563.71734,510.42145 C 563.71734,510.42145 563.65287,510.30881 563.54004,510.19617 L 536.7195,462.70969 C 536.50996,462.5005 536.41325,462.5005 536.41325,462.5005 C 536.41325,462.5005 536.1876,462.5005 536.1876,462.80624 L 529.53082,509.45595 C 529.41799,509.98698 529.30517,510.08353 529.30517,510.08353 C 529.30517,510.08353 529.09563,510.19617 528.77327,510.19617 L 509.57659,510.19617 C 509.27035,510.19617 509.0447,509.98698 509.0447,509.98698 C 509.0447,509.98698 508.62563,509.5525 508.78681,509.13412 L 519.2797,433.64816 C 519.39253,433.21368 519.61818,433.11713 519.61818,433.11713 C 519.61818,433.11713 519.92442,432.77921 520.24679,432.77921 L 541.68388,432.77921 C 542.00624,432.77921 542.21578,433.00449 542.21578,433.00449 C 542.21578,433.00449 542.42531,433.11713 542.53814,433.42287 L 566.69919,475.76002 C 567.11826,476.59679 567.44062,476.50024 567.44062,476.50024 C 567.44062,476.50024 567.76299,476.50024 567.97252,475.53474 L 574.06517,433.42287 C 574.06517,433.11713 574.25859,433.00449 574.25859,433.00449 C 574.25859,433.00449 574.37141,432.77921 574.69378,432.77921 L 594.84142,433.00449 C 595.27661,433.00449 595.38943,433.11713 595.38943,433.11713 C 595.38943,433.11713 595.48614,433.21368 595.48614,433.42287 L 584.60642,509.5525 C 584.49359,509.98698 584.30017,510.30881 584.30017,510.30881 C 584.30017,510.30881 584.18734,510.42145 583.65545,510.42145 z M 499.22877,510.19617 L 480.46728,510.30881 C 480.03209,510.30881 479.72585,510.08353 479.72585,510.08353 C 479.72585,510.08353 479.61302,509.98698 479.50019,509.24676 L 476.5667,497.09756 C 476.5667,496.84009 476.37328,496.72745 476.37328,496.72745 C 476.37328,496.72745 476.26045,496.72745 476.0348,496.72745 L 449.53662,496.72745 C 449.00472,496.72745 448.68236,497.09756 448.68236,497.09756 C 448.68236,497.09756 448.26329,497.41939 447.94093,498.15961 L 442.65419,509.45595 C 442.44465,509.89043 442.33182,509.98698 442.33182,509.98698 C 442.33182,509.98698 442.02558,510.19617 441.75157,510.19617 L 419.89541,510.19617 C 419.25068,510.30881 419.13786,509.98698 419.13786,509.98698 C 419.13786,509.98698 419.02503,509.66514 419.25068,509.24676 L 457.16049,433.21368 C 457.32167,432.77921 457.64403,432.68266 457.64403,432.68266 C 457.64403,432.68266 457.85357,432.68266 458.38546,432.68266 L 482.54652,432.68266 C 482.98171,432.68266 483.28795,433.00449 483.28795,433.00449 C 483.28795,433.00449 483.40078,433.11713 483.5136,433.42287 L 499.76066,509.66514 C 499.76066,509.98698 499.56725,510.08353 499.56725,510.08353 C 499.56725,510.08353 499.45442,510.19617 499.22877,510.19617 z M 642.37374,454.67995 C 642.37374,454.67995 642.26091,454.67995 642.14808,455.09834 L 631.60684,478.8979 C 631.38118,479.63811 631.49401,479.75075 631.49401,479.75075 C 631.49401,479.75075 631.80025,479.95995 632.02591,479.95995 L 647.64436,479.8473 C 647.75719,479.8473 647.85389,479.8473 647.85389,479.8473 C 647.85389,479.8473 647.96672,479.75075 647.85389,479.42892 L 642.58327,454.98569 C 642.48656,454.67995 642.37374,454.67995 642.37374,454.67995 z M 467.18595,454.98569 C 467.18595,454.98569 467.08925,454.98569 466.97642,455.21098 L 456.41905,479.10709 C 456.20952,479.42892 456.30623,479.63811 456.30623,479.63811 C 456.30623,479.63811 456.41905,479.75075 456.95095,479.75075 L 472.45658,479.8473 C 472.5694,479.8473 472.61776,479.75075 472.61776,479.75075 C 472.61776,479.75075 472.73059,479.63811 472.61776,479.31628 L 467.28266,455.21098 C 467.28266,454.98569 467.18595,454.98569 467.18595,454.98569 z M 413.1258,507.54105 C 413.01297,508.37781 412.5939,509.02148 412.5939,509.02148 C 412.5939,509.02148 412.1426,509.45595 411.46563,509.66514 C 401.27899,513.76852 390.01242,512.38463 390.01242,512.38463 C 371.73448,510.42145 360.16168,499.22166 356.42228,484.80353 C 350.926,463.19244 361.82184,447.85709 364.48133,444.5583 C 370.88022,436.88258 380.90569,431.41142 390.76998,430.12408 C 403.30987,428.37009 412.5939,431.29877 416.43001,432.58611 C 416.43001,432.58611 420.63684,433.90562 423.77987,436.04581 C 425.37557,437.10786 425.60122,437.52625 425.60122,437.52625 C 425.60122,437.52625 425.69793,437.75153 425.26274,439.39288 L 422.29701,454.87305 C 422.18418,455.51672 421.79735,455.83855 421.79735,455.83855 C 421.79735,455.83855 421.58781,455.95119 420.08883,454.98569 C 410.61137,448.27547 399.52211,449.08006 399.52211,449.08006 C 391.09234,449.61108 381.22805,454.03629 378.29456,465.2039 C 375.68342,475.11636 378.40738,483.41965 384.30661,488.35979 C 388.32002,491.88386 394.55773,493.63785 401.11781,493.33211 C 408.25813,492.80109 413.96394,489.96896 413.54487,490.17815 C 413.54487,490.17815 413.85112,490.06551 414.1896,489.96896 C 415.67246,489.22874 415.99482,489.32529 415.99482,489.32529 C 415.99482,489.32529 416.31719,489.64712 416.09153,490.61262 L 413.1258,507.54105"
       id="path68520" />
    <path
       id="path68644"
       d="M 942.37991,142.45821 L 944.76191,142.45821 L 942.37991,142.45821"
       style="fill:#000000;fill-rule:nonzero;stroke:none" />
    <path
       id="path68650"
       d="M 944.76191,141.56521 L 944.76191,141.81321 L 944.76191,141.56521"
       style="fill:#de6a06;fill-rule:nonzero;stroke:none" />
  </g>
</svg>
